public/svg/Vector2.svg

<svg width="60" height="28" viewBox="0 0 60 28" fill="none" xmlns="http://www.w3.org/2000/svg">
<path id="Vector" d="M8.14152 22.5061C8.74533 22.7871 9.26661 23.345 9.99299 23.2715C10.3938 23.5987 10.9001 23.8849 11.4343 23.8429C11.9367 24.5298 12.7249 25.1611 13.64 25.042C13.9887 25.2801 14.4073 25.3717 14.8235 25.3876C15.5248 26.1009 16.7923 26.5131 17.6542 25.8516C17.804 25.9046 17.9585 25.9367 18.117 25.9471C18.2563 25.9568 18.3949 25.9475 18.5319 25.9184C19.1373 26.1685 19.8913 26.3307 20.4646 25.9201C21.2131 26.234 22.2258 26.2396 22.7915 25.5813C23.7697 25.944 25.1033 25.7049 25.5579 24.6719C25.929 24.8417 26.3191 24.9722 26.7308 24.9807C26.8906 24.9342 26.9977 25.0047 27.0522 25.1938C27.4401 25.6183 27.9727 25.9178 28.5452 25.9992C28.7281 26.0226 28.9165 26.0151 29.0916 26.091C29.6265 26.8333 30.5765 27.3062 31.4957 27.1844C32.1506 27.6637 33.1462 27.8944 33.8689 27.431C34.2772 27.5852 34.7356 27.6326 35.151 27.4798C35.1868 27.4394 35.2214 27.436 35.254 27.4704C35.7191 27.7207 36.2982 27.8256 36.804 27.6404C36.9293 27.6249 37.1096 27.7225 37.2067 27.7476C37.8467 27.9175 38.6677 27.8128 39.0664 27.2307C39.3999 27.3006 39.7368 27.2279 40.0379 27.0862C40.2387 27.0725 40.4336 26.9989 40.6032 26.8922C41.4774 27.238 42.13 26.9725 42.7749 26.3667C43.1893 26.2575 43.6952 26.2764 44.0719 26.0683C44.3575 26.1049 44.6556 26.0617 44.9157 25.9372C45.4886 26.0072 46.1817 25.7997 46.4481 25.2497C46.7162 25.2242 46.9575 25.1903 47.23 25.2449C47.6803 25.254 48.1687 25.1191 48.4782 24.7756C48.5202 24.6678 48.6006 24.6325 48.7193 24.6694C49.1728 24.5951 49.6347 24.4448 49.95 24.0955C49.9869 23.9661 50.0667 23.9052 50.1894 23.9113C50.6032 23.8046 51.0166 23.5368 51.1973 23.1401C51.6154 22.951 51.9473 22.5256 51.945 22.0567C52.0876 21.9217 52.2215 21.7736 52.2813 21.5836C52.2727 21.5011 52.3074 21.453 52.3852 21.4391C52.4881 21.3743 52.5708 21.3685 52.6904 21.3166C52.9191 21.2214 53.0883 21.0461 53.2272 20.8464C53.4576 20.7319 53.6584 20.5361 53.7358 20.2874C53.7995 20.0835 53.7564 20.2048 53.8917 20.0359C53.9171 19.9969 53.9419 19.9588 53.9674 19.9213C54.4016 19.8913 54.8637 19.6969 55.0702 19.2933C55.4735 19.0644 55.7778 18.6155 55.6534 18.1403C55.693 18.1095 55.7325 18.0787 55.7714 18.0487C55.8246 18.0019 55.868 17.9481 55.9015 17.8858C56.6896 17.8878 57.5564 17.2307 57.3693 16.3769C57.79 16.211 58.0872 15.7724 58.0386 15.3173C58.0127 15.2582 58.0429 15.2353 58.1284 15.2478C58.4597 15.141 58.7643 14.8822 58.8555 14.5382C58.906 14.3467 58.8578 14.4216 58.98 14.2665C59.6796 13.5188 58.695 12.5538 57.873 12.5939C57.5334 12.5856 57.2568 12.6916 56.9959 12.901C56.8855 12.9884 56.8525 12.9839 56.6984 13.0406C56.2815 13.1719 55.9081 13.5598 55.9433 14.0202C55.5052 14.0898 55.0526 14.3801 54.9364 14.8317C54.8881 15.0238 54.9097 14.9184 54.6495 15.0069C53.9185 15.2095 53.4604 16.0351 53.8101 16.7397C53.8398 16.7651 53.8386 16.7866 53.8067 16.8053C53.7767 16.9128 53.7047 16.9646 53.5898 16.9587C53.278 17.0167 52.972 17.1668 52.7769 17.4234C52.6962 17.5284 52.6918 17.6168 52.5874 17.6817C52.2818 17.8696 52.093 18.2334 52.1233 18.5926C51.9166 18.8319 51.5433 18.7886 51.3234 19.0249C51.1088 19.3 50.7502 19.3492 50.5881 19.6747C50.524 19.7913 50.5203 19.854 50.3972 19.9148C50.149 19.9482 49.9252 20.0523 49.7164 20.188C49.2371 20.1887 48.7376 20.3504 48.4156 20.7191C47.9942 20.8311 47.5688 21.0935 47.3957 21.5103C46.982 21.6098 46.6599 21.9035 46.4445 22.2615C46.0133 22.3079 45.5806 22.5085 45.3448 22.8855C45.1623 22.949 45.0395 23.1402 44.8295 23.0208C44.5835 22.991 44.3455 22.9825 44.1024 23.0355C43.8159 23.0923 43.5514 23.2316 43.346 23.4403C43.3087 23.5101 43.2465 23.5411 43.1579 23.5353C42.9814 23.5952 42.806 23.6969 42.6783 23.8369C42.6317 23.9315 42.5535 23.9766 42.4416 23.9718C42.2793 24.0209 42.1364 24.1171 42.0136 24.2331C41.6347 24.4454 41.2852 24.2011 40.8952 24.1611C40.4358 24.1204 39.9134 24.2388 39.6124 24.6125C39.4269 24.5693 39.236 24.5731 39.0475 24.5947C38.721 24.6507 38.3591 24.5615 38.0595 24.7632C37.4087 24.4331 36.5368 24.3651 35.9397 24.8414C35.5716 24.7611 35.1622 24.79 34.8279 24.9712C34.5005 24.7997 34.1173 24.7093 33.7487 24.7518C33.2574 24.2992 32.5647 24.0139 31.8921 24.0769C31.3306 23.6187 30.5537 23.3531 29.8336 23.518C29.5306 23.1282 29.1036 22.822 28.6319 22.6757C28.6713 22.6251 28.7101 22.5751 28.7496 22.5259C28.8011 22.4395 28.8448 22.3515 28.8816 22.2591C29.6506 22.3935 30.5867 22.0059 30.7753 21.1924C31.1245 21.0826 31.3756 20.8097 31.5649 20.5192C32.0271 20.2634 32.3576 19.8012 32.3402 19.2603C32.2585 19.1139 32.2767 19.0094 32.3955 18.9476C32.5814 18.8346 32.7505 18.6772 32.8302 18.4718C33.0421 18.4394 33.2513 18.3613 33.4242 18.2338C34.813 18.2685 35.8906 16.9177 35.3289 15.5917C35.1529 15.3937 35.1889 15.307 35.4366 15.3318C36.615 15.0743 37.1639 13.9067 36.8658 12.7878C36.8163 12.5714 36.7393 12.3671 36.6332 12.1721C36.6224 12.0784 36.626 12.0249 36.6963 11.969C37.3642 11.4106 37.3009 10.3478 36.9251 9.63989C36.8265 9.45923 36.707 9.29374 36.5668 9.14478C36.361 8.96618 36.4336 8.68125 36.2993 8.465C36.3683 8.11494 36.2533 7.74293 36.0613 7.4504C36.3779 6.11592 35.0127 5.39779 34.2642 4.57048C34.057 4.3905 33.8316 4.21617 33.5875 4.09167C33.3402 3.96452 33.3409 4.03764 33.2186 3.86175C33.0802 3.66289 32.8838 3.47635 32.6792 3.34873C32.532 3.25576 32.5533 3.19086 32.4236 3.01267C32.3152 2.86193 32.1791 2.71124 32.0514 2.5755C31.6173 2.11715 31.0309 1.78961 30.407 1.68666C29.7549 1.26351 28.9015 1.06882 28.158 1.35501C27.8879 1.2272 27.5806 1.15353 27.2819 1.16453C26.83 0.858919 26.2852 0.720954 25.7436 0.76194C25.5036 0.772794 25.6362 0.77807 25.3415 0.689497C24.3755 0.371707 22.9693 0.673039 22.7047 1.79271C21.5009 1.57762 20.1338 2.38886 20.1423 3.69941C20.1323 4.19187 20.2753 3.94766 20.0136 4.21816C19.6367 4.60343 19.5314 5.20864 19.6896 5.71696C19.7388 5.80127 19.7172 5.88035 19.6257 5.95497C19.5684 6.11378 19.5329 6.2792 19.4976 6.44531C19.5267 6.62701 19.4382 6.7149 19.2319 6.70964C18.3029 7.10407 18.1591 8.29324 18.642 9.09245C18.9107 9.23551 18.5868 9.47666 18.6462 9.70385C18.6247 9.72114 18.6034 9.73844 18.582 9.75578C18.4841 9.84865 18.4072 9.9569 18.35 10.0793C16.6815 10.7165 17.0709 12.9132 18.2426 13.8598C18.3754 13.9234 18.4429 14.0326 18.4435 14.186C18.4382 14.5627 18.4876 14.954 18.7025 15.2778C18.159 16.2983 18.8354 17.5243 19.6965 18.1364C19.8685 18.1557 19.9278 18.2143 19.8742 18.3123C19.633 19.429 20.2482 20.5828 21.1505 21.2278C21.3575 21.3047 21.3198 21.395 21.0359 21.5002L20.8269 21.7446C20.7943 21.9737 20.6806 22.048 20.4875 21.9671C19.8942 21.934 19.2304 22.1817 18.925 22.7146C18.5106 22.6618 18.0537 22.7529 17.7348 23.0345C17.5425 22.9956 17.3322 23.0955 17.221 22.877C16.6 22.3672 15.6655 22.0857 14.9068 22.4381C14.6426 22.2798 14.3423 22.1701 14.0339 22.15C13.5101 21.6879 12.7486 21.4186 12.0637 21.6404C11.7449 21.2877 11.3386 21.033 10.8825 20.8961C10.5751 20.3691 10.0355 20.1358 9.53187 19.8734C9.2348 19.6478 8.88248 19.4826 8.50939 19.4443C8.37034 19.2319 8.19445 19.0358 7.98412 18.8932C7.76942 18.4644 7.40579 18.1205 6.97695 17.9114C6.84935 17.888 6.74393 17.8294 6.66059 17.7357C6.59982 17.7127 6.58359 17.6685 6.61194 17.6031C6.58195 16.9009 6.13614 16.2393 5.54993 15.8703C5.43307 15.8389 5.37084 15.7606 5.36395 15.6361C5.21493 15.2418 4.9697 15.1192 4.77926 14.8602C4.59504 14.4623 4.28064 14.1234 3.88994 13.9226C3.79487 13.6931 3.68325 13.4771 3.57501 13.2536C3.45312 13.0637 3.27972 12.92 3.27724 12.6771C3.25766 12.2644 2.99426 11.9312 2.85411 11.5583C2.84276 11.1216 2.55036 10.7903 2.33552 10.4354C2.19894 10.2145 2.07298 10.0196 1.84805 9.87728C1.18396 9.43372 0.586098 9.87814 0.445043 10.5846C0.416326 10.8462 0.509676 11.05 0.602523 11.285C0.627879 11.519 0.793455 11.7071 0.90037 11.8985C1.02555 12.1462 1.00481 12.4291 1.1231 12.6798C1.25545 12.9142 1.38797 13.1575 1.55152 13.3733C1.59669 13.8293 1.85706 14.2314 2.1123 14.5994C1.96265 15.2426 2.4775 15.7073 2.65049 16.2756C2.74791 16.4993 2.89667 16.6939 3.06158 16.8739C3.19468 16.9232 3.25749 17.0085 3.25126 17.1298C3.38437 17.9162 4.01122 18.5858 4.75163 18.8527C4.90049 18.8481 4.98778 18.9202 5.01436 19.0695C5.05858 19.1087 5.07811 19.1583 5.07347 19.2177C5.17816 19.8143 5.59721 20.3151 6.10445 20.6246C6.35611 21.0151 6.74534 21.3132 7.18496 21.4621C7.4202 21.8823 7.72307 22.255 8.14152 22.5061ZM33.021 8.85715C32.7174 9.30857 32.534 9.8727 32.6577 10.4173C32.8171 10.6393 32.7582 10.7683 32.4819 10.8047C31.5453 11.3837 31.1209 12.5575 31.6829 13.5491C30.4273 13.682 29.6365 15.0789 30.1895 16.2188C30.1809 16.255 30.1738 16.2911 30.166 16.328C30.2118 16.4502 30.1907 16.5456 30.1036 16.6135C29.9522 16.7516 29.818 16.9175 29.7724 17.1223C29.1774 17.139 28.6367 17.48 28.3991 18.0292C28.2723 18.0974 28.1612 18.1856 28.0666 18.2945C28.0198 18.3586 27.9728 18.4226 27.9253 18.4874C27.2983 18.5842 26.706 19.016 26.5999 19.6712C26.1658 19.6672 25.753 19.8158 25.4403 20.1189C25.3579 20.3107 25.2888 20.2991 25.2324 20.086C25.1412 19.9021 24.8859 19.8012 24.902 19.583C24.7217 18.6316 23.9514 17.8935 23.1343 17.4469C23.2607 16.568 22.8356 15.6861 22.1529 15.1423C22.1548 14.8295 22.0423 14.5151 21.8803 14.2511C22.6112 13.6351 22.5902 12.5143 22.1547 11.7316C22.0029 11.3918 21.6678 11.19 21.5937 10.8218C21.642 10.7114 21.6699 10.5956 21.6768 10.4749C22.7591 10.1647 23.0496 8.81575 22.447 7.94457C22.5035 7.85705 22.5606 7.77018 22.6186 7.68395C22.6365 7.64916 22.6544 7.61438 22.673 7.58023C23.112 7.50379 23.559 7.24694 23.7576 6.83507C24.8485 6.83897 25.9017 5.92939 25.798 4.79419C26.3245 4.74543 26.877 4.51263 27.17 4.05512C27.2775 4.03987 27.3807 4.00669 27.4757 3.95669C27.737 3.94562 27.8107 4.14316 27.9903 4.29682C28.2376 4.50708 28.5369 4.69199 28.8443 4.79952C29.0583 4.87311 28.9852 4.88306 29.2544 5.06464C29.7131 5.37806 30.2438 5.50982 30.7839 5.60074C30.9316 5.57292 31.0614 5.60614 31.1718 5.70058C31.3441 5.78741 31.2966 5.75199 31.3962 5.90982C31.5475 6.17548 31.7666 6.38438 31.7716 6.70695C31.9162 7.28683 32.3073 7.81134 32.8152 8.12993C32.9966 8.193 32.9893 8.43161 33.1154 8.56485C33.2498 8.65904 33.2331 8.76573 33.021 8.85715Z" fill="#0CBC7C"/>
</svg>

<svg xmlns="http://www.w3.org/2000/svg" width="60" height="28" fill="none"><path fill="#0CBC7C" d="M8.142 22.506c.603.281 1.125.839 1.851.765.4.328.907.614 1.441.572.503.687 1.29 1.318 2.206 1.199.349.238.767.33 1.183.346.702.713 1.97 1.125 2.831.464q.226.08.463.095.21.015.415-.029c.605.25 1.36.413 1.933.002.748.314 1.76.32 2.326-.339.979.363 2.312.124 2.767-.91.371.17.761.301 1.173.31q.24-.07.321.213c.388.424.92.724 1.493.805.183.024.371.016.547.092.535.742 1.485 1.215 2.404 1.093.655.48 1.65.71 2.373.247.408.154.867.202 1.282.049q.054-.06.103-.01c.465.25 1.044.356 1.55.17.125-.015.306.082.403.108.64.17 1.46.065 1.86-.517.333.07.67-.003.97-.145.202-.013.397-.087.566-.194.874.346 1.527.08 2.172-.525.414-.11.92-.09 1.297-.299a1.5 1.5 0 0 0 .844-.13c.573.07 1.266-.138 1.532-.688.268-.026.51-.06.782-.005.45.009.939-.126 1.248-.47q.064-.16.241-.106c.454-.074.916-.224 1.231-.573q.055-.194.24-.185c.413-.106.827-.374 1.007-.77.418-.19.75-.615.748-1.084.143-.135.276-.283.336-.473q-.013-.124.104-.145c.103-.065.186-.07.305-.122.23-.096.398-.27.537-.47.23-.115.431-.31.509-.56.064-.203.02-.082.156-.251l.075-.115c.435-.03.897-.224 1.103-.628.404-.229.708-.677.583-1.153l.118-.091a.6.6 0 0 0 .13-.163c.789.002 1.655-.655 1.468-1.51.421-.165.718-.604.67-1.059q-.039-.088.09-.07c.33-.106.635-.365.727-.709.05-.191.002-.116.124-.271.7-.748-.285-1.713-1.107-1.673a1.3 1.3 0 0 0-.877.307c-.11.087-.144.083-.298.14-.416.13-.79.519-.755.98-.438.069-.89.36-1.007.81-.048.193-.026.087-.286.176-.731.203-1.19 1.028-.84 1.733q.045.038-.003.065-.045.163-.217.154c-.312.058-.618.208-.813.464-.08.105-.085.194-.19.259a1 1 0 0 0-.464.91c-.206.24-.58.197-.8.433-.214.275-.573.324-.735.65-.064.116-.068.179-.19.24a1.66 1.66 0 0 0-.682.273c-.479 0-.978.162-1.3.531-.422.112-.847.374-1.02.791-.414.1-.736.393-.952.752-.43.046-.863.247-1.1.624-.182.063-.305.254-.514.135a2.1 2.1 0 0 0-.728.014 1.46 1.46 0 0 0-.756.405q-.056.104-.188.095c-.177.06-.352.162-.48.302q-.069.142-.236.135c-.163.049-.306.145-.428.261-.38.212-.729-.032-1.119-.072-.46-.04-.982.078-1.283.451a1.7 1.7 0 0 0-.565-.017c-.326.056-.688-.034-.987.168-.651-.33-1.523-.398-2.12.078-.368-.08-.778-.051-1.112.13a1.9 1.9 0 0 0-1.08-.22c-.49-.452-1.183-.737-1.856-.674-.561-.458-1.338-.724-2.058-.559a2.5 2.5 0 0 0-1.202-.842l.118-.15q.076-.129.132-.267c.769.134 1.705-.253 1.893-1.067.35-.11.6-.382.79-.673.462-.256.793-.718.775-1.259q-.122-.219.055-.312c.186-.113.355-.27.435-.476.212-.033.421-.11.594-.238 1.389.034 2.467-1.316 1.905-2.642q-.264-.297.108-.26c1.178-.258 1.727-1.425 1.429-2.544a2.4 2.4 0 0 0-.233-.616c-.01-.094-.007-.147.063-.203.668-.558.605-1.621.23-2.33a2.4 2.4 0 0 0-.36-.494c-.205-.179-.132-.464-.267-.68.07-.35-.046-.722-.238-1.015.317-1.334-1.048-2.052-1.797-2.88a3.5 3.5 0 0 0-.677-.478c-.247-.127-.246-.054-.368-.23a1.9 1.9 0 0 0-.54-.513c-.147-.093-.126-.158-.255-.336a5 5 0 0 0-.373-.437 2.97 2.97 0 0 0-1.644-.89c-.652-.422-1.506-.617-2.249-.331a1.9 1.9 0 0 0-.876-.19 2.42 2.42 0 0 0-1.538-.403c-.24.01-.108.016-.402-.073-.966-.317-2.373-.016-2.637 1.104-1.204-.215-2.571.596-2.563 1.906-.01.493.133.249-.128.52-.377.384-.483.99-.324 1.498q.073.126-.064.238a4 4 0 0 0-.128.49q.043.273-.266.265c-.93.394-1.073 1.583-.59 2.382.269.144-.055.385.004.612l-.064.052a1.1 1.1 0 0 0-.232.323c-1.669.637-1.28 2.834-.107 3.78q.199.097.2.327c-.005.377.045.768.26 1.092-.544 1.02.132 2.246.994 2.858q.257.03.177.176c-.241 1.117.374 2.27 1.277 2.916q.31.115-.115.272l-.21.245q-.048.343-.338.222c-.594-.033-1.258.215-1.563.748-.414-.053-.871.038-1.19.32-.192-.04-.403.06-.514-.158-.621-.51-1.556-.791-2.314-.439a2 2 0 0 0-.873-.288c-.524-.462-1.285-.731-1.97-.51a2.6 2.6 0 0 0-1.181-.744c-.308-.527-.847-.76-1.351-1.023a2.07 2.07 0 0 0-1.023-.429 2 2 0 0 0-.525-.55 2.2 2.2 0 0 0-1.007-.983.54.54 0 0 1-.316-.175q-.091-.034-.05-.133c-.029-.702-.475-1.364-1.061-1.733q-.176-.047-.186-.234c-.15-.394-.394-.517-.585-.776a2 2 0 0 0-.89-.937c-.094-.23-.206-.446-.314-.67-.122-.19-.295-.333-.298-.576-.02-.413-.283-.746-.423-1.119-.011-.436-.304-.768-.518-1.123-.137-.22-.263-.415-.488-.558-.664-.443-1.262.001-1.403.708-.029.261.065.465.158.7.025.234.19.422.297.614.126.247.105.53.223.78.132.235.265.479.429.694.045.456.305.858.56 1.226-.15.644.365 1.108.538 1.677a2.2 2.2 0 0 0 .412.598q.199.075.19.256c.132.786.76 1.456 1.5 1.723q.223-.008.262.216a.17.17 0 0 1 .06.149c.104.596.523 1.097 1.03 1.407.252.39.641.688 1.081.837.235.42.538.793.957 1.044M33.02 8.857c-.304.452-.487 1.016-.363 1.56q.239.333-.176.388c-.937.579-1.361 1.752-.8 2.744-1.255.133-2.045 1.53-1.492 2.67q-.013.054-.024.109.069.184-.062.285c-.152.139-.286.305-.332.51a1.53 1.53 0 0 0-1.373.906 1.2 1.2 0 0 0-.332.265l-.142.193c-.627.097-1.219.529-1.325 1.184a1.62 1.62 0 0 0-1.16.448q-.123.287-.208-.033c-.09-.184-.346-.285-.33-.503-.18-.951-.95-1.69-1.768-2.136.127-.879-.298-1.76-.981-2.305a1.7 1.7 0 0 0-.273-.89c.731-.617.71-1.738.275-2.52-.152-.34-.487-.542-.561-.91q.072-.165.083-.347c1.082-.31 1.373-1.66.77-2.53q.084-.132.172-.261.026-.053.054-.104c.439-.076.886-.333 1.085-.745 1.09.004 2.144-.906 2.04-2.04.527-.05 1.079-.282 1.372-.74a1 1 0 0 0 .306-.098c.261-.011.335.186.514.34.248.21.547.395.854.503.214.073.141.083.41.265.46.313.99.445 1.53.536a.44.44 0 0 1 .388.1c.172.086.125.051.224.209.151.265.37.474.376.797.144.58.535 1.104 1.043 1.423.182.063.174.302.3.435.135.094.118.2-.094.292"/></svg>
